icons/outline/filter-2-spark.svg

<svg width="24" height="24" viewBox="0 0 24 24" fill="none" xmlns="http://www.w3.org/2000/svg">
<path d="M4 6H20" stroke="black" stroke-width="2" stroke-linecap="round" stroke-linejoin="round"/>
<path d="M6 12H15.5" stroke="black" stroke-width="2" stroke-linecap="round" stroke-linejoin="round"/>
<path d="M9 18H11.5" stroke="black" stroke-width="2" stroke-linecap="round" stroke-linejoin="round"/>
<path d="M19 21.5C19.2053 20.6513 19.6406 19.8755 20.2581 19.2581C20.8755 18.6406 21.6513 18.2053 22.5 18C21.6513 17.7947 20.8755 17.3594 20.2581 16.7419C19.6406 16.1245 19.2053 15.3487 19 14.5C18.7947 15.3487 18.3594 16.1245 17.7419 16.7419C17.1245 17.3594 16.3487 17.7947 15.5 18C16.3487 18.2053 17.1245 18.6406 17.7419 19.2581C18.3594 19.8755 18.7947 20.6513 19 21.5Z" stroke="black" stroke-width="2" stroke-linecap="round" stroke-linejoin="round"/>
</svg>

<!--
category: Sytem
-->
<svg
  xmlns="http://www.w3.org/2000/svg"
  width="24"
  height="24"
  viewBox="0 0 24 24"
  fill="none"
  stroke="currentColor"
  stroke-width="2"
  stroke-linecap="round"
  stroke-linejoin="round"
>
  <path d="M4 6h16" stroke="black" stroke-width="2" stroke-linecap="round" stroke-linejoin="round" />
  <path d="M6 12h9.5" stroke="black" stroke-width="2" stroke-linecap="round" stroke-linejoin="round" />
  <path d="M9 18h2.5" stroke="black" stroke-width="2" stroke-linecap="round" stroke-linejoin="round" />
  <path d="M19 21.5c.205 -.849 .641 -1.625 1.258 -2.242c.617 -.617 1.393 -1.053 2.242 -1.258c-.849 -.205 -1.625 -.641 -2.242 -1.258c-.617 -.617 -1.053 -1.393 -1.258 -2.242c-.205 .849 -.641 1.625 -1.258 2.242c-.617 .617 -1.393 1.053 -2.242 1.258c.849 .205 1.625 .641 2.242 1.258c.617 .617 1.053 1.393 1.258 2.242z" stroke="black" stroke-width="2" stroke-linecap="round" stroke-linejoin="round" />
</svg>
